X:166
T:Undertow
R:jig
D:Davy Spillane:
Z:id:hn-jig-166
M:6/8
K:Dmix
gfd c2A|cAd cAA|gfd c2A|BAG AFD|gfd c2A|cAd cAF|~G3 BAG|1 AFD D3:|2 AFD DAG||
|:F2D DED|dBc ABF|A2G GFG|dBc ABG|F2D DED|dBc ABF|AGG GFG|1 AFD DAG:|2 AFD D3||

